!!!COM: Robert Franz
!!!CNT: Deutscher
!!!TXO: Deutsche 
!!!OTL: "Lieb' Liebchen"
!!!OPS: Op. 17
!!!ONM: No. 3
!!!ONB: Original key: d minor
!!!LYR: H. Heine
!!!ENC: Brian Bice
!!!YOR: Vocal Album, G. Schirmer, Inc., 1907
!!!ODT: 1860/
!!NB: Vocal melody and text only encoded.
**kern	**silbe
*clefG2	*
*k[b-e-a-]	*
*M6/8	*
=2	=2
4r	.
8r	.
4r	.
{8g	{Lieb'
=3	=3
8.g	Lieb-
16g	-chen,
8g	leg's
8.dd	Ha2nd-
16cc	-chen
8bn	auf's
=4	=4
4cc	Her-
8cc	-ze
4g}	mein;}
{8g	{ach,
=5	=5
8.f	ho2rst
16f	du,
8f	wie's
8.a-	po-
16g	-chet
8f	im
=6	=6
4e-	Ka2m-
8f	-mer-
4g}	-lein?}
{8g	{Da
=7	=7
8.b-	hau-
16an	-set
8g	ein
8.g	Zim-
16a-	-mer-
8b-	-mann
=8	=8
4e-	schlimm
8f	und
4g}	arg,}
{8an	{der
=9	=9
8.b-	zim-
16cc	-mert
8dd-	mir
4g-	ei-
8a-	-nen
=10	=10
4b-	To-
8b-	-dten-
[4.f	-sarg.
=11	=11
4f]}	|}
8r	.
4r	.
8r	.
=14	=14
4r	.
8r	.
4r	.
{8g	{Es
=15	=15
8.g	ha2m-
16g	-mert
8g	und
8.dd	klop-
16cc	-fet
8bn	bei
=16	=16
8.cc	Tag
16cc	und
8cc	bei
4g}	Nacht;}
{8g	{es
=17	=17
8.f	hat
16f	mich
8f	schon
8.a-	la2ngst
16g	um
8f	den
=18	=18
4e-	Schlaf
8f	ge-
4g;}	-bracht.}
{8c#	{'Ach,
=19	=19
8.d	spu-
16en	-tet
8f	Euch,
4en	Mei-
8c#	-ster
=20	=20
4d	Zim-
8d	-mer-
4An}	-mann,}
{8Bn	{da-
=21	=21
8.cn	-mit
16d	ich
8e-	nun
4d	bal-
8Bn	-de
=22	=22
4c	schla-
8c	-fen
4.G}	kann!'}
*-	*-
